papirus/32x32/apps/0ad.svg

<svg height="32" viewBox="0 0 32 32.000001" width="32" xmlns="http://www.w3.org/2000/svg"><path d="m16 2a14 14 0 0 0 -14 14 14 14 0 0 0  14 14 14 14 0 0 0  14-14 14 14 0 0 0 -14-14z" fill="#c8ab37"/><path d="m16 2a14 14 0 0 0 -14 14 14 14 0 0 0  .0214844.414062 14 14 0 0 1  13.9785156-13.414062 14 14 0 0 1  13.978516 13.585938 14 14 0 0 0  .021484-.585938 14 14 0 0 0 -14-14z" fill="#fff" opacity=".2"/><path d="m2.0214844 15.414062a14 14 0 0 0 -.0214844.585938 14 14 0 0 0  14 14 14 14 0 0 0  14-14 14 14 0 0 0 -.021484-.414062 14 14 0 0 1 -13.978516 13.414062 14 14 0 0 1 -13.9785156-13.585938z" opacity=".3"/><path d="m17 6.0505622v9.9492188h9.945312a11 11 0 0 0 -9.945312-9.9492188zm-2 .00391a11 11 0 0 0 -9.9492188 9.9453088h9.9492188v-9.9453125zm-9.9453125 11.9453088a11 11 0 0 0 9.9453125 9.949219v-9.949219zm11.9453125 0v9.945312a11 11 0 0 0 9.949219-9.945312z" opacity=".2"/><path d="m17 5.0507812v9.9492188h9.945312a11 11 0 0 0 -9.945312-9.9492188zm-2 .0039063a11 11 0 0 0 -9.9492188 9.9453125h9.9492188zm-9.9453125 11.9453125a11 11 0 0 0 9.9453125 9.949219v-9.949219zm11.9453125 0v9.945312a11 11 0 0 0 9.949219-9.945312z" fill="#fff"/></svg>

<?xml version="1.0" encoding="UTF-8" standalone="no"?>
<svg
   xmlns:dc="http://purl.org/dc/elements/1.1/"
   xmlns:cc="http://creativecommons.org/ns#"
   xmlns:rdf="http://www.w3.org/1999/02/22-rdf-syntax-ns#"
   xmlns:svg="http://www.w3.org/2000/svg"
   xmlns="http://www.w3.org/2000/svg"
   xmlns:sodipodi="http://sodipodi.sourceforge.net/DTD/sodipodi-0.dtd"
   xmlns:inkscape="http://www.inkscape.org/namespaces/inkscape"
   version="1.1"
   id="svg4261"
   viewBox="0 0 32 32.000001"
   height="32"
   width="32"
   inkscape:version="0.91 r13725"
   sodipodi:docname="0ad.svg">
  <sodipodi:namedview
     pagecolor="#828282"
     bordercolor="#666666"
     borderopacity="1"
     objecttolerance="10"
     gridtolerance="10"
     guidetolerance="10"
     inkscape:pageopacity="0"
     inkscape:pageshadow="2"
     inkscape:window-width="1600"
     inkscape:window-height="849"
     id="namedview10"
     showgrid="false"
     inkscape:zoom="8.6599296"
     inkscape:cx="24"
     inkscape:cy="14.09901"
     inkscape:window-x="0"
     inkscape:window-y="0"
     inkscape:window-maximized="1"
     inkscape:current-layer="svg4261" />
  <defs
     id="defs4263" />
  <metadata
     id="metadata4266">
    <rdf:RDF>
      <cc:Work
         rdf:about="">
        <dc:format>image/svg+xml</dc:format>
        <dc:type
           rdf:resource="http://purl.org/dc/dcmitype/StillImage" />
        <dc:title></dc:title>
      </cc:Work>
    </rdf:RDF>
  </metadata>
  <path
     inkscape:connector-curvature="0"
     style="opacity:1;fill:#c8ab37;fill-opacity:1;stroke:none;stroke-width:0.2;stroke-miterlimit:4;stroke-dasharray:none;stroke-opacity:1"
     d="M 16,2 A 14,14 0 0 0 2,16 14,14 0 0 0 16,30 14,14 0 0 0 30,16 14,14 0 0 0 16,2 Z"
     id="path4153" />
  <path
     style="opacity:0.2;fill:#ffffff;fill-opacity:1;stroke:none;stroke-width:0.2;stroke-miterlimit:4;stroke-dasharray:none;stroke-opacity:1"
     d="M 16 2 A 14 14 0 0 0 2 16 A 14 14 0 0 0 2.0214844 16.414062 A 14 14 0 0 1 16 3 A 14 14 0 0 1 29.978516 16.585938 A 14 14 0 0 0 30 16 A 14 14 0 0 0 16 2 z "
     id="path4266" />
  <path
     style="opacity:0.3;fill:#000000;fill-opacity:1;stroke:none;stroke-width:0.2;stroke-miterlimit:4;stroke-dasharray:none;stroke-opacity:1"
     d="M 2.0214844 15.414062 A 14 14 0 0 0 2 16 A 14 14 0 0 0 16 30 A 14 14 0 0 0 30 16 A 14 14 0 0 0 29.978516 15.585938 A 14 14 0 0 1 16 29 A 14 14 0 0 1 2.0214844 15.414062 z "
     id="path4271" />
  <path
     id="path4284"
     d="m 17,6.0505622 0,9.9492188 9.945312,0 A 11,11 0 0 0 17,6.0505622 Z m -2,0.00391 A 11,11 0 0 0 5.0507812,15.999781 l 9.9492188,0 0,-9.9453125 z M 5.0546875,17.999781 A 11,11 0 0 0 15,27.949 l 0,-9.949219 -9.9453125,0 z m 11.9453125,0 0,9.945312 a 11,11 0 0 0 9.949219,-9.945312 l -9.949219,0 z"
     style="opacity:0.2;fill:#000000;fill-opacity:1;stroke:none;stroke-width:2;stroke-linecap:butt;stroke-linejoin:miter;stroke-miterlimit:4;stroke-dasharray:none;stroke-opacity:1"
     inkscape:connector-curvature="0" />
  <path
     style="opacity:1;fill:#ffffff;fill-opacity:1;stroke:none;stroke-width:2;stroke-linecap:butt;stroke-linejoin:miter;stroke-miterlimit:4;stroke-dasharray:none;stroke-opacity:1"
     d="M 17 5.0507812 L 17 15 L 26.945312 15 A 11 11 0 0 0 17 5.0507812 z M 15 5.0546875 A 11 11 0 0 0 5.0507812 15 L 15 15 L 15 5.0546875 z M 5.0546875 17 A 11 11 0 0 0 15 26.949219 L 15 17 L 5.0546875 17 z M 17 17 L 17 26.945312 A 11 11 0 0 0 26.949219 17 L 17 17 z "
     id="path4276" />
</svg>
